X:152
T:Merry little soldier - S Glibert
%%VWML:SBG-1-2-413-0
F:http://www.vwml.org/record/SBG/1/2/413
Z:Original Sibelius transcriptions by M. & S. Graebe
M:4/4
I:linebreak $
K:G
V:1 treble nm="P1"
V:1
 B3/2 B/ | B D G B | d B c3/2 B/ | A G G B | D3 G3/2 G/ | G/ G/ D G B |$ d B c3/2 B/ | A G B A | %8
w: |||||battle _ _ _ _|_ _ _ _||
 G2"^chorus" c3/2 c/ | B d G G | F G A2 | B d/4c/4B/4c/4 A D |$ c B z D | c B A G | %14
w: ||||||
 d3/2 e/ d/c/B/A/ | G B B A | A G z2 |$ F G A B | d c A F | G B B A | A G G A/B/ | c A G F | G4 | %23
w: |||||||||

